packages/core/src/svgs/tokens/branded/VEE.svg

<svg width="24" height="24" viewBox="0 0 24 24" fill="none" xmlns="http://www.w3.org/2000/svg">
<path d="M18.5583 2.6135C18.1045 2.60676 17.654 2.69116 17.2333 2.86172C16.8128 3.03228 16.4307 3.28553 16.1098 3.60646C15.7889 3.92739 15.5356 4.30947 15.365 4.73007C15.1945 5.15066 15.1101 5.60122 15.1168 6.05503C15.1168 8.00101 16.6248 9.49653 18.5583 9.49653C20.4918 9.49653 21.9999 8.00101 21.9999 6.05503C21.9999 4.109 20.4918 2.6135 18.5583 2.6135ZM7.57047 2.73239L14.7664 16.217C14.8102 16.292 14.8102 16.3859 14.7664 16.4547L12.2008 21.2604C12.1805 21.2982 12.1503 21.33 12.1134 21.3521C12.0766 21.3743 12.0342 21.3858 11.9913 21.3858C11.9483 21.3858 11.9061 21.3743 11.8691 21.3521C11.8322 21.33 11.802 21.2982 11.7817 21.2604L2.03897 2.96391C2.01722 2.92773 2.00577 2.88631 2.00586 2.8441C2.00595 2.80189 2.01757 2.7605 2.03947 2.72442C2.06139 2.68834 2.09273 2.65894 2.13014 2.63939C2.16756 2.61984 2.20959 2.61089 2.25173 2.6135H7.389C7.43906 2.6135 7.53292 2.6573 7.57672 2.73239H7.57047Z" fill="#718C98"/>
<path d="M6.33785 8.57018C4.85643 6.66777 3.4899 4.67858 2.24555 2.61326C2.05783 2.61326 1.93894 2.80098 2.03281 2.96367L11.7817 21.2602C11.8756 21.4291 12.107 21.4291 12.2009 21.2602L14.4912 16.9739C11.4496 14.5082 8.71438 11.6868 6.34412 8.57018H6.33785Z" fill="#718C98"/>
</svg>

<svg xmlns="http://www.w3.org/2000/svg" width="24" height="24" fill="none" viewBox="0 0 24 24">
    <path fill="#718C98" d="M18.558 2.614a3.39 3.39 0 0 0-3.441 3.441c0 1.946 1.508 3.442 3.441 3.442C20.492 9.497 22 8 22 6.055s-1.508-3.441-3.442-3.441M7.57 2.732l7.196 13.485a.23.23 0 0 1 0 .238l-2.565 4.805a.238.238 0 0 1-.42 0L2.04 2.964a.232.232 0 0 1 .213-.35H7.39c.05 0 .144.043.188.118z"/>
    <path fill="#718C98" d="M6.338 8.57a61 61 0 0 1-4.092-5.957c-.188 0-.307.188-.213.35l9.749 18.297a.237.237 0 0 0 .419 0l2.29-4.286A49 49 0 0 1 6.344 8.57z"/>
</svg>
